src/includes/external/grandeljay/consistent_flags/flags/GB.svg

<?xml version="1.0"?>
<svg xmlns="http://www.w3.org/2000/svg" viewBox="0 0 60 30" width="1200" height="600">
<clipPath id="s">
	<path d="M0,0 v30 h60 v-30 z"/>
</clipPath>
<clipPath id="t">
	<path d="M30,15 h30 v15 z v15 h-30 z h-30 v-15 z v-15 h30 z"/>
</clipPath>
<g clip-path="url(#s)">
	<path d="M0,0 v30 h60 v-30 z" fill="#012169"/>
	<path d="M0,0 L60,30 M60,0 L0,30" stroke="#fff" stroke-width="6"/>
	<path d="M0,0 L60,30 M60,0 L0,30" clip-path="url(#t)" stroke="#C8102E" stroke-width="4"/>
	<path d="M30,0 v30 M0,15 h60" stroke="#fff" stroke-width="10"/>
	<path d="M30,0 v30 M0,15 h60" stroke="#C8102E" stroke-width="6"/>
</g>
</svg>

<?xml version="1.0" encoding="UTF-8" standalone="no"?>
<svg
   viewBox="0 0 0.9 0.45"
   width="18"
   height="9"
   version="1.1"
   id="svg20"
   sodipodi:docname="GB.svg"
   inkscape:version="1.2.2 (b0a8486541, 2022-12-01)"
   xmlns:inkscape="http://www.inkscape.org/namespaces/inkscape"
   xmlns:sodipodi="http://sodipodi.sourceforge.net/DTD/sodipodi-0.dtd"
   xmlns="http://www.w3.org/2000/svg"
   xmlns:svg="http://www.w3.org/2000/svg">
  <defs
     id="defs24" />
  <sodipodi:namedview
     id="namedview22"
     pagecolor="#ffffff"
     bordercolor="#666666"
     borderopacity="1.0"
     inkscape:showpageshadow="2"
     inkscape:pageopacity="0.0"
     inkscape:pagecheckerboard="0"
     inkscape:deskcolor="#d1d1d1"
     showgrid="false"
     inkscape:zoom="1.0083333"
     inkscape:cx="626.28099"
     inkscape:cy="299.50413"
     inkscape:window-width="1920"
     inkscape:window-height="1027"
     inkscape:window-x="-8"
     inkscape:window-y="-8"
     inkscape:window-maximized="1"
     inkscape:current-layer="svg20" />
  <clipPath
     id="s">
    <path
       d="M 0,0 V 30 H 60 V 0 Z"
       id="path2" />
  </clipPath>
  <clipPath
     id="t">
    <path
       d="m 30,15 h 30 v 15 z m 0,0 V 30 H 0 Z m 0,0 H 0 V 0 Z m 0,0 V 0 h 30 z"
       id="path5" />
  </clipPath>
  <g
     clip-path="url(#s)"
     id="g18"
     transform="scale(0.015)">
    <path
       d="M 0,0 V 30 H 60 V 0 Z"
       fill="#012169"
       id="path8" />
    <path
       d="M 0,0 60,30 M 60,0 0,30"
       stroke="#ffffff"
       stroke-width="6"
       id="path10" />
    <path
       d="M 0,0 60,30 M 60,0 0,30"
       clip-path="url(#t)"
       stroke="#c8102e"
       stroke-width="4"
       id="path12" />
    <path
       d="M 30,0 V 30 M 0,15 h 60"
       stroke="#ffffff"
       stroke-width="10"
       id="path14" />
    <path
       d="M 30,0 V 30 M 0,15 h 60"
       stroke="#c8102e"
       stroke-width="6"
       id="path16" />
  </g>
</svg>
